X:1
T:Salamanca, 11.11.11.11
T:Salamanca, 11.11.11.11
T:George Frederick Root, 1881
T:Public Domain Courtesy of the Cyber Hymnal™
C:George Frederick Root, 1881
Z:Public Domain
Z:Courtesy of the Cyber Hymnal™
%%score ( 1 2 ) ( 3 4 )
L:1/8
Q:1/4=83
M:2/4
K:G
V:1 treble 
V:2 treble 
V:3 bass 
V:4 bass 
V:1
 [B,B]>[B,A] [B,G][B,F] | [B,A] [B,G]2 z | [DG]>[DA] [DG][DF] | [CE]3 z | [Cc]>[CB] [CA][B,^G] | %5
 [DB] [CA]2 z | [^CA]>[CG] [DF][CE] | D3 z | [CA]>[C^G] [CB][CA] | [B,A] [B,G]2 z | %10
 [DG]>[DF] [DA][DG] | [CE]3 z | [A,D]>[B,E] [CF][B,G] | (AB) [Dc]2 | [DB]>[DB] [DB][CA] | %15
 [B,G]3 z |] %16
V:2
 x4 | x4 | x4 | x4 | x4 | x4 | x4 | D3 x | x4 | x4 | x4 | x4 | x4 | D2 x2 | x4 | x4 |] %16
V:3
 [G,,D,]>[G,,D,] [G,,D,][G,,D,] | [G,,D,] [G,,D,]2 z | [B,,G,]>[B,,G,] [B,,G,][B,,G,] | [C,G,]3 z | %4
 [A,,A,]>[A,,E,] [A,,E,][A,,E,] | [A,,E,] [A,,E,]2 z | [A,,E,]>[A,,E,] [A,,A,][A,,G,] | [D,F,]3 z | %8
 [D,F,]>[D,F,] [D,F,][D,F,] | [G,,G,] [G,,D,]2 z | [B,,G,]>[B,,G,] [B,,G,][B,,G,] | [C,G,]3 z | %12
 [D,F,]>[D,G,] [D,A,][D,G,] | (F,G,) [D,A,]2 | [G,,G,]>[B,,G,] [D,F,][D,F,] | [G,,G,]3 z |] %16
V:4
 x4 | x4 | x4 | x4 | x4 | x4 | x4 | x4 | x4 | x4 | x4 | x4 | x4 | D,2 x2 | x4 | x4 |] %16

